X:255
T:Compound Triple Time
S:Bruce & Emmett's Drummers and Fifers Guide (1862), p. 25
M:9/8
L:1/8
K:Em
D|GAG GAB dBG|ABA ABd e2g|GAG GAB dBG|ABc BGE E2::
f|{a}gfg afd edB|{a}gfg afd e2f|{a}gfg afd edB|ABc BGE E2:||
